icons/clipboard-fill.svg

<svg xmlns="http://www.w3.org/2000/svg" width="24" height="24" fill="none"><g clip-path="url(#a)"><g><path fill="#121212" d="M6 4V8H18V4H20.007C20.555 4 21 4.445 21 4.993V21.007C20.9997 21.2703 20.895 21.5227 20.7089 21.7089C20.5227 21.895 20.2703 21.9997 20.007 22H3.993C3.72972 21.9997 3.4773 21.895 3.29114 21.7089C3.10497 21.5227 3.00026 21.2703 3 21.007V4.993C3 4.445 3.445 4 3.993 4H6ZM8 2H16V6H8V2Z"/></g></g><defs><clipPath id="a"><rect width="24" height="24" fill="white"/></clipPath></defs></svg>

<svg width="24" height="24" fill="none" xmlns="http://www.w3.org/2000/svg"><g clip-path="url(#a)"><path d="M6 4v4h12V4h2.007c.548 0 .993.445.993.993v16.014a.994.994 0 0 1-.993.993H3.993A.994.994 0 0 1 3 21.007V4.993C3 4.445 3.445 4 3.993 4H6Zm2-2h8v4H8V2Z" /></g><defs><clipPath id="a"><path fill="#fff" d="M0 0h24v24H0z"/></clipPath></defs></svg>
